X:36
T:Wedding Song
N:
D:
O:
Z:<anamnese@laposte.net> -- http://anamnese.fr.st
M:5/4
L:1/8
Q:1/4=72
K:G
%%staves (1 2)
V:1
G>A B G c B A3 D | G A B3 G d4 | e d/ c/ B G A2 G3 B | c2B2 A G A4 | 
c2 c>d e c d2 | c d/ c/ B G d4-d D | G A B G c3 B A D | (E/F/) G A G2 F G3 d |
e d c e d c B3 d | c B A G E 
V:2
"G"x4 "C"x2 "D"x2"D7"x2 |
